icons/Adwaita-gray/scalable/places/folder-documents.svg

<?xml version="1.0" encoding="UTF-8"?>
<svg height="128px" viewBox="0 0 128 128" width="128px" xmlns="http://www.w3.org/2000/svg" xmlns:xlink="http://www.w3.org/1999/xlink">
    <linearGradient id="a" gradientTransform="matrix(0.45451 0 0 0.455522 -1210.292114 616.172607)" gradientUnits="userSpaceOnUse" x1="2689.251953" x2="2918.069824" y1="-1106.802979" y2="-1106.802979">
        <stop offset="0" stop-color="#62a0ea"/>
        <stop offset="0.0576991" stop-color="#afd4ff"/>
        <stop offset="0.122204" stop-color="#62a0ea"/>
        <stop offset="0.873306" stop-color="#62a0ea"/>
        <stop offset="0.955997" stop-color="#c0d5ea"/>
        <stop offset="1" stop-color="#62a0ea"/>
    </linearGradient>
    <path d="m 21.976562 12 c -5.527343 0 -9.976562 4.460938 -9.976562 10 v 86.03125 c 0 5.542969 4.449219 10 9.976562 10 h 84.042969 c 5.53125 0 9.980469 -4.457031 9.980469 -10 v -72.085938 c 0 -6.628906 -5.359375 -12 -11.972656 -12 h -46.027344 c -2.453125 0 -4.695312 -1.386718 -5.796875 -3.582031 l -1.503906 -2.992187 c -1.65625 -3.292969 -5.019531 -5.371094 -8.699219 -5.371094 z m 0 0" fill="#438de6"/>
    <path d="m 65.976562 36 c -2.746093 0 -5.226562 1.101562 -7.027343 2.890625 c -2.273438 2.253906 -5.382813 5.109375 -8.632813 5.109375 h -28.339844 c -5.527343 0 -9.976562 4.460938 -9.976562 10 v 54.03125 c 0 5.542969 4.449219 10 9.976562 10 h 84.042969 c 5.53125 0 9.980469 -4.457031 9.980469 -10 v -62.03125 c 0 -5.539062 -4.449219 -10 -9.980469 -10 z m 0 0" fill="url(#a)"/>
    <path d="m 65.976562 32 c -2.746093 0 -5.226562 1.101562 -7.027343 2.890625 c -2.273438 2.253906 -5.382813 5.109375 -8.632813 5.109375 h -28.339844 c -5.527343 0 -9.976562 4.460938 -9.976562 10 v 55.976562 c 0 5.539063 4.449219 10 9.976562 10 h 84.042969 c 5.53125 0 9.980469 -4.460937 9.980469 -10 v -63.976562 c 0 -5.539062 -4.449219 -10 -9.980469 -10 z m 0 0" fill="#a4caee"/>
    <path d="m 58 60 c -3.289062 0 -6 2.710938 -6 6 v 20 c 0 3.289062 2.710938 6 6 6 h 12 c 3.289062 0 6 -2.710938 6 -6 v -17 c 0 -0.53125 -0.210938 -1.039062 -0.585938 -1.414062 l -7 -7 c -0.375 -0.375 -0.882812 -0.585938 -1.414062 -0.585938 z m 0 4 h 8 v 3 c 0 2 1 3 3 3 h 3 v 16 c 0 1.140625 -0.859375 2 -2 2 h -12 c -1.140625 0 -2 -0.859375 -2 -2 v -20 c 0 -1.140625 0.859375 -2 2 -2 z m 0 0" fill="#438de6"/>
</svg>

<svg width="128" height="128" viewBox="0 0 128 128" fill="none" xmlns="http://www.w3.org/2000/svg">
<path d="M21.9766 12C16.4492 12 12 16.4609 12 22V108.031C12 113.574 16.4492 118.031 21.9766 118.031H106.02C111.551 118.031 116 113.574 116 108.031V35.9453C116 29.3164 110.641 23.9453 104.027 23.9453H58C55.5469 23.9453 53.3047 22.5586 52.2031 20.3633L50.6992 17.3711C49.043 14.0781 45.6797 12 42 12H21.9766Z" fill="#77767B"/>
<path d="M65.9766 36C63.2305 36 60.75 37.1016 58.9492 38.8906C56.6758 41.1445 53.5664 44 50.3164 44H21.9766C16.4492 44 12 48.4609 12 54V108.031C12 113.574 16.4492 118.031 21.9766 118.031H106.02C111.551 118.031 116 113.574 116 108.031V46C116 40.4609 111.551 36 106.02 36H65.9766Z" fill="url(#paint0_linear_25_31)"/>
<path d="M65.9766 32C63.2305 32 60.75 33.1016 58.9492 34.8906C56.6758 37.1445 53.5664 40 50.3164 40H21.9766C16.4492 40 12 44.4609 12 50V105.977C12 111.516 16.4492 115.977 21.9766 115.977H106.02C111.551 115.977 116 111.516 116 105.977V42C116 36.4609 111.551 32 106.02 32H65.9766Z" fill="#C0BFBC"/>
<path d="M58 60C54.7109 60 52 62.7109 52 66V86C52 89.2891 54.7109 92 58 92H70C73.2891 92 76 89.2891 76 86V69C76 68.4688 75.7891 67.9609 75.4141 67.5859L68.4141 60.5859C68.0391 60.2109 67.5312 60 67 60H58ZM58 64H66V67C66 69 67 70 69 70H72V86C72 87.1406 71.1406 88 70 88H58C56.8594 88 56 87.1406 56 86V66C56 64.8594 56.8594 64 58 64Z" fill="#77767B"/>
<defs>
<linearGradient id="paint0_linear_25_31" x1="11.9998" y1="112" x2="116" y2="112" gradientUnits="userSpaceOnUse">
<stop stop-color="#9A9996"/>
<stop offset="0.0576991" stop-color="#F6F5F4"/>
<stop offset="0.122204" stop-color="#9A9996"/>
<stop offset="0.873306" stop-color="#9A9996"/>
<stop offset="0.955997" stop-color="#F6F5F4"/>
<stop offset="1" stop-color="#9A9996"/>
</linearGradient>
</defs>
</svg>
